X:21
T:Si le Pre vous appelle - T154-1
M:3/4
L:1/8
K:Gm
DD|G3G DD|E2E2EE|F3F CC|D2D2DD|B,3B, CC|D4=EE|^F2F2G2|A4
DD|G3G BG|E2E2FG|A3G AF|D2D2DD|B,3B, CC|D4=EE|^F2F2G2|A4
BB|B3B AG|F2F2BB|c3c BB|A2A2DD|G3G FE|D4=EE|^F2F2G2|[M:C]A4
BB AG|F4GG FE|D2DD=E2^FF|G2AAB2cB|A4
BB AG|F4GG FE|D2DD=E2^FF|[M:3/4]G2cB AA|G4||
